src/topics/icons/enyo.svg

<svg height="435" preserveAspectRatio="xMidYMid" viewBox="0 0 256 435" width="256" xmlns="http://www.w3.org/2000/svg" xmlns:xlink="http://www.w3.org/1999/xlink"><radialGradient id="a" cx="50%" cy="44.213307%" r="50%"><stop offset="0" stop-color="#a5c8e6"/><stop offset="1" stop-color="#353d4b"/></radialGradient><path d="m74.1721854 434.013245c.0008477-9.88143-.0059337-19.762437.0046623-29.643868.0114437-10.364609 7.7668874-18.283231 18.1327682-18.319682 4.7805033-.016953 9.6758671-.25388 14.3194701.643391 8.320848 1.607629 13.732027 8.948556 13.738384 17.464795.007629 9.951788.002967 19.903576.003391 29.855364h-12.291391c.017378-9.956026.061457-19.912477.038146-29.868503-.008053-3.454305-2.508291-6.054146-5.960901-6.173669-3.2440792-.111894-6.4991786-.120795-9.7428342.000848-3.4589669.129695-5.9668344 2.704105-5.9808212 6.173245-.0402649 9.955602.0135629 19.912053.0305166 29.868079z"/><path d="m37.7218543 434.013245c-3.7403973-1.107073-7.325245-2.467603-10.0810596-5.437881-3.309351-3.566198-5.1568742-7.701616-5.173404-12.597828-.0144106-4.166357-.0491655-8.333562.0101722-12.499496.1301192-9.185908 7.7100927-17.148186 16.8798941-17.39698 8.1148609-.219974 16.2411655-.050861 24.3619602-.045351.2716821.000423.5429404.086887.9400795.155125v12.078199h-2.2739073c-7.0620397.000424-14.1240795-.013563-21.1861192.006782-4.3312318.012291-6.8098543 2.476927-6.8611391 6.820874-.0381457 3.248318-.0394172 6.497483-.0021192 9.745801.0504371 4.41049 2.5888212 6.874702 7.04551 6.879364 7.6939867.008477 15.3879735.002543 23.4659602.002543v12.288848z"/><path d="m144.529801 434.013245c-.035602-3.458543.035179-11.938331.035179-11.938331-10.934252-1.818702-16.524291-8.959576-16.812503-18.01706-.177166-5.573933-.035179-11.158463-.027126-16.738331.000424-.338225.083921-.67645.147497-1.153271h12.095152c0 2.485827-.000424 4.863576.000424 7.2409.000848 3.178384-.065272 6.358464.020768 9.534729.126729 4.660556 2.538808 6.949298 7.191735 6.963708 2.61298.008477 5.226384.019497 7.839788-.002543 4.226967-.035602 6.732715-2.487947 6.76959-6.700079.042384-4.872901.006357-9.746649.015258-14.620397.001695-.758252.062728-1.516928.102146-2.417166h12.150251v2.381139c0 4.661828.000424 9.323232 0 13.98506-.000847 10.651549-6.063046 17.701722-16.812927 19.333086v12.148556z"/><path d="m64.6789934 404.00657v11.999364h-24.9930596v-11.999364z"/><path d="m212.560106 386.028927h-13.793483c-9.760636 0-17.673325 7.913113-17.673325 17.673748v12.468133c0 9.76106 7.912689 17.673748 17.673325 17.673748h13.793483c9.760636 0 17.673324-7.912688 17.673324-17.673748v-12.468133c0-9.760635-7.912688-17.673748-17.673324-17.673748zm5.072954 29.781616c0 3.370808-2.732504 6.103311-6.103312 6.103311h-12.175682c-3.370808 0-6.103311-2.732503-6.103311-6.103311v-11.49245c0-3.370808 2.732503-6.103312 6.103311-6.103312h12.175682c3.370808 0 6.103312 2.732504 6.103312 6.103312z"/><path d="m128 0 128 38.1456954v228.8741726l-128 92.397351-128-92.397351v-228.8741726z" fill="#2a3141"/><path d="m128 9.74834437 119.099338 35.17880793v217.8543047l-119.081113 85.615894-118.69372169-85.615894v-217.8543047z" fill="url(#a)" fill-opacity=".91"/><path d="m128.211921 9.46437086-119.09933822 35.30468874v.1580927h.21192053-.21192053v217.9628077l119.09933822 85.908768v-.540821l-.193696.139444-118.69372169-85.615894v-217.8543047l118.67549669-35.17880793.211921.06272848z" fill="#262c3a"/><g fill="#ecedec"><path d="m22.8874172 72.4768212v45.7748348l105.1125828 58.490066 105.112583-58.490066v-45.7748348l-105.112583 51.2847678z"/><path d="m22.8874172 138.596026v45.774835l105.1125828 68.662252 73.748344-48.317881v-47.89404l-73.748344 42.807947z"/><path d="m22.8874172 207.258278v45.774835l105.1125828 75.867549 105.112583-75.867549v-45.774835l-105.112583 68.662252z"/></g><path d="m127.788079 10.0323179-118.25165516 35.0529271v217.587709l118.25165516 85.297165z" fill-opacity=".07"/></svg>

<?xml version="1.0" encoding="UTF-8" standalone="no"?>
<svg width="256px" height="435px" viewBox="0 0 256 435" version="1.1" xmlns="http://www.w3.org/2000/svg" xmlns:xlink="http://www.w3.org/1999/xlink" preserveAspectRatio="xMidYMid">
    <defs>
        <radialGradient cx="50%" cy="44.2133073%" fx="50%" fy="44.2133073%" r="50%" id="radialGradient-1">
            <stop stop-color="#A5C8E6" offset="0%"></stop>
            <stop stop-color="#353D4B" offset="100%"></stop>
        </radialGradient>
    </defs>
	<g>
		<path d="M74.1721854,434.013245 C74.1730331,424.131815 74.1662517,414.250808 74.1768477,404.369377 C74.1882914,394.004768 81.9437351,386.086146 92.3096159,386.049695 C97.0901192,386.032742 101.985483,385.795815 106.629086,386.693086 C114.949934,388.300715 120.361113,395.641642 120.36747,404.157881 C120.375099,414.109669 120.370437,424.061457 120.370861,434.013245 L108.07947,434.013245 C108.096848,424.057219 108.140927,414.100768 108.117616,404.144742 C108.109563,400.690437 105.609325,398.090596 102.156715,397.971073 C98.9126358,397.859179 95.6575364,397.850278 92.4138808,397.971921 C88.9549139,398.101616 86.4470464,400.676026 86.4330596,404.145166 C86.3927947,414.100768 86.4466225,424.057219 86.4635762,434.013245 L74.1721854,434.013245" fill="#000000"></path>
		<path d="M37.7218543,434.013245 C33.981457,432.906172 30.3966093,431.545642 27.6407947,428.575364 C24.3314437,425.009166 22.4839205,420.873748 22.4673907,415.977536 C22.4529801,411.811179 22.4182252,407.643974 22.4775629,403.47804 C22.6076821,394.292132 30.1876556,386.329854 39.357457,386.08106 C47.4723179,385.861086 55.5986225,386.030199 63.7194172,386.035709 C63.9910993,386.036132 64.2623576,386.122596 64.6594967,386.190834 L64.6594967,398.269033 L62.3855894,398.269033 C55.3235497,398.269457 48.2615099,398.25547 41.1994702,398.275815 C36.8682384,398.288106 34.3896159,400.752742 34.3383311,405.096689 C34.3001854,408.345007 34.2989139,411.594172 34.3362119,414.84249 C34.386649,419.25298 36.9250331,421.717192 41.3817219,421.721854 C49.0757086,421.730331 56.7696954,421.724397 64.8476821,421.724397 L64.8476821,434.013245 L37.7218543,434.013245" fill="#000000"></path>
		<path d="M144.529801,434.013245 C144.494199,430.554702 144.56498,422.074914 144.56498,422.074914 C133.630728,420.256212 128.040689,413.115338 127.752477,404.057854 C127.575311,398.483921 127.717298,392.899391 127.725351,387.319523 C127.725775,386.981298 127.809272,386.643073 127.872848,386.166252 L139.968,386.166252 C139.968,388.652079 139.967576,391.029828 139.968424,393.407152 C139.969272,396.585536 139.903152,399.765616 139.989192,402.941881 C140.115921,407.602437 142.528,409.891179 147.180927,409.905589 C149.793907,409.914066 152.407311,409.925086 155.020715,409.903046 C159.247682,409.867444 161.75343,407.415099 161.790305,403.202967 C161.832689,398.330066 161.796662,393.456318 161.805563,388.58257 C161.807258,387.824318 161.868291,387.065642 161.907709,386.165404 L174.05796,386.165404 L174.05796,388.546543 C174.05796,393.208371 174.058384,397.869775 174.05796,402.531603 C174.057113,413.183152 167.994914,420.233325 157.245033,421.864689 L157.245033,434.013245 L144.529801,434.013245" fill="#000000"></path>
		<path d="M64.6789934,404.00657 L64.6789934,416.005934 L39.6859338,416.005934 L39.6859338,404.00657 L64.6789934,404.00657" fill="#000000"></path>
		<path d="M212.560106,386.028927 L198.766623,386.028927 C189.005987,386.028927 181.093298,393.94204 181.093298,403.702675 L181.093298,416.170808 C181.093298,425.931868 189.005987,433.844556 198.766623,433.844556 L212.560106,433.844556 C222.320742,433.844556 230.23343,425.931868 230.23343,416.170808 L230.23343,403.702675 C230.23343,393.94204 222.320742,386.028927 212.560106,386.028927 L212.560106,386.028927 L212.560106,386.028927 Z M217.63306,415.810543 C217.63306,419.181351 214.900556,421.913854 211.529748,421.913854 L199.354066,421.913854 C195.983258,421.913854 193.250755,419.181351 193.250755,415.810543 L193.250755,404.318093 C193.250755,400.947285 195.983258,398.214781 199.354066,398.214781 L211.529748,398.214781 C214.900556,398.214781 217.63306,400.947285 217.63306,404.318093 L217.63306,415.810543 L217.63306,415.810543 Z" fill="#000000"></path>
		<path d="M128,0 L256,38.1456954 L256,267.019868 L128,359.417219 L0,267.019868 L0,38.1456954 L128,0" fill="#2A3141"></path>
		<path d="M128,9.74834437 L247.099338,44.9271523 L247.099338,262.781457 L128.018225,348.397351 L9.32450331,262.781457 L9.32450331,44.9271523 L128,9.74834437" fill-opacity="0.910000026" fill="url(#radialGradient-1)"></path>
		<path d="M128.211921,9.46437086 L9.11258278,44.7690596 L9.11258278,44.9271523 L9.32450331,44.9271523 L9.11258278,44.9271523 L9.11258278,262.88996 L128.211921,348.798728 L128.211921,348.257907 L128.018225,348.397351 L9.32450331,262.781457 L9.32450331,44.9271523 L128,9.74834437 L128.211921,9.81107285 L128.211921,9.46437086" fill="#262C3A"></path>
		<path d="M22.8874172,72.4768212 L22.8874172,118.251656 L128,176.741722 L233.112583,118.251656 L233.112583,72.4768212 L128,123.761589 L22.8874172,72.4768212" fill="#ECEDEC"></path>
		<path d="M22.8874172,138.596026 L22.8874172,184.370861 L128,253.033113 L201.748344,204.715232 L201.748344,156.821192 L128,199.629139 L22.8874172,138.596026" fill="#ECEDEC"></path>
		<path d="M22.8874172,207.258278 L22.8874172,253.033113 L128,328.900662 L233.112583,253.033113 L233.112583,207.258278 L128,275.92053 L22.8874172,207.258278" fill="#ECEDEC"></path>
		<path d="M127.788079,10.0323179 L9.53642384,45.085245 L9.53642384,262.672954 L127.788079,347.970119 L127.788079,10.0323179" fill-opacity="0.0700000003" fill="#000000"></path>
	</g>
</svg>
